X: 1512
T: Gundy's Waltz
B: australian traditional tunes wiki
M:3/4
L:1/8
R: Waltz
Q: 1/4=100
K:G
V:1 
||"G"d2B2g2|"D7"f2c2e2|"G"d2B2d2|"Bm"d2B2GB|"Am"c2A2B2|c2A2c>e|"D7"d2G2A2|"G"B4-Bc|
"G"d2B2g2|"D7"f2c2e2|"G"d2B2d2|"Bm"d2B2GB|"Am"A2a2f>e|"D7"d2e2f2|"G"g6-|g4d2||
"G"g2f2e2|"D7"d2e2f2|"G"g2B2d2|"Bm"d2B2d2|"C"ecA2B2|"Am"c2A2c>e|"D7"d2G2A2|"G"B4-Bc|
"G"d2B2g2|"D7"f2c2e2|"G"d2B2d2|"Bm"d2B2GB|"Am"A2a2f>e|"D7"d2e2f2|"G"g6-|g4||
% abcbook-tune_id 6342d53a6b42151513fc6bcb


% abcbook-boost 0
% abcbook-tablature 
% abcbook-transpose 
% abcbook-lastupdated 1665324368617
% abcbook-soundfonts 
% abcbook-repeats 1
% NFF Book 2010

